X:1
T:[ID 2-55b]
T:[ID 2-55b]
T:Bezeichnung standardisiert: Tantz Tantz \"Ahnlich in dieser Quelle: ID 5-9;
T:Urheber unbekannt Datum in der hier transkribierten schriftlichen Quelle: 1767
C:Urheber unbekannt
C:Datum in der hier transkribierten schriftlichen Quelle: 1767
L:1/8
M:2/4
K:D
V:1 treble 
V:1
 A | d3 f | e3 g | fdge | dAFD | dddf | eeeg | fdge | d3 :: (3d/e/f/ | ff fe/f/ | gg g2 | %12
 ee ed/e/ | fffA | d3 f | e3 g | fdge | d3 :| %18

